src/img/security.svg

<svg width="48" height="48" viewBox="0 0 48 48" fill="none" xmlns="http://www.w3.org/2000/svg">
<path fill-rule="evenodd" clip-rule="evenodd" d="M24 46C12 40.6542 6 35.3208 6 30V10C6 8.46482 6.5892 8.10803 8.21985 7.12058L8.21987 7.12057C8.71359 6.8216 9.30278 6.46481 10 6C10.3236 5.78428 17.1264 2 24 2C29.9905 2 35 4 38 6C38.6972 6.46482 39.2864 6.82161 39.7801 7.12058C41.4108 8.10803 42 8.46482 42 10C42.0394 10.4345 42.0201 19.6742 42.0076 25.5894C42.0034 27.6066 42 29.2371 42 30C42 35.3333 36 40.6667 24 46ZM38 30C38 29.5394 38.0012 28.7676 38.0037 27.5094L38.0118 23.6028C38.0143 22.339 38.0164 21.2545 38.0181 20.2196C38.0254 15.7553 38.0235 11.9236 38.0192 10.7386L37.7444 10.5681C37.0977 10.1668 36.2547 9.64389 35.7812 9.3282C32.8286 7.35983 28.5204 6 24 6C19.6762 6 14.0573 8.10255 12.2188 9.3282C11.7453 9.64388 10.9023 10.1668 10.2556 10.568L10.2556 10.5681L10 10.7267V30C10 33.0169 14.4582 37.1375 24.0019 41.604C33.5443 37.1475 38 33.0285 38 30ZM30.5857 16.5859L21.9999 25.1717L17.4141 20.5859L14.5857 23.4144L21.9999 30.8286L33.4141 19.4144L30.5857 16.5859Z" fill="#13A9B2"/>
</svg>

<svg xmlns="http://www.w3.org/2000/svg" width="48" height="48" fill="none"><path fill="#13A9B2" fill-rule="evenodd" d="M24 46C12 40.654 6 35.32 6 30V10c0-1.535.59-1.892 2.22-2.88A45.786 45.786 0 0 0 10 6c.324-.216 7.126-4 14-4 5.99 0 11 2 14 4 .697.465 1.286.822 1.78 1.12C41.41 8.109 42 8.466 42 10c.04.434.02 9.674.008 15.59C42.003 27.606 42 29.236 42 30c0 5.333-6 10.667-18 16Zm14-16 .004-2.49.008-3.907.006-3.383c.007-4.465.005-8.296.001-9.481l-.275-.17c-.646-.402-1.49-.925-1.963-1.24C32.83 7.358 28.521 6 24 6c-4.324 0-9.943 2.103-11.781 3.328-.474.316-1.317.839-1.963 1.24l-.256.159V30c0 3.017 4.458 7.138 14.002 11.604C33.544 37.148 38 33.029 38 30Zm-7.414-13.414L22 25.172l-4.586-4.586-2.828 2.828L22 30.83l11.414-11.415-2.828-2.828Z" clip-rule="evenodd"/></svg>
